X:74
T:Marlbrouk. TJD.74
M:6/8
L:1/8
Q:1/4=120
S:T.J.Dixon MS2, Lincolnshire, early 19thC
R:jig
A:Lincolnshire, Holton le Moor
Z:vmp.R.Greig2010
K:C
c|e2ee2d|f3e>fe|d2d d>cd|(e3c2)c|!
e2ee2d|f3e2f|e2c “tr”d>cd|c3-c2||!
g|g2e a2″^cr in MS”a|g3-g2g|g2ea2a|g3-g2c|!
e2ee2d|f3e>fe|d2d (d>cd)|(e3c2)c|!
e2ee2d|f3-e2g|e2c “tr”d>cd|c3-c2|]
